X: 1
T: Amerikaturen No 1
C: trad.
S: Bruce Sagan's "scanfolk" session archive
F: https://nordicfiddlesandfeet.org/Allspel/Amerikaturen.pdf 2021-7-13
R: hambo, polska
%S: s:2 b:12(5+5)
Z: 2021 John Chambers <jc:trillian.mit.edu>
M: 3/4
L: 1/8
K: D
f |: a2 (3faf (3def | g2 (3aga b>b | a2 g>e c>e |1,3 d2 (3ede f>f :|2,4 d2 d3 :|
|: A |: A2 f>e d>c | B2 g>f e>d | c2 c>A B>c |1,3 d2 (3ede f>f :|2,4 d2 d3 :|
